X: 10202
M: 3/4
L: 1/8
K: Bb
[|\
(B>cd2)d2 | B6 |\
({c}B>cd2){d}c2 | B6 |
c2A2B2 | c2e4 |\
{d}c6 | B2c2d2 |\
(B2A2)G2 | (c2A2)B2 |\
c2{d}c4 | B6 |]


